assets/images/vector/icons/face_plus_icon.svg

<svg fill="none" height="60" viewBox="0 0 60 60" width="60" xmlns="http://www.w3.org/2000/svg"><path d="m36.666 39.1934c-1.5733 2.4866-4.3467 4.14-7.5 4.14s-5.9267-1.6534-7.5-4.14" stroke="#111" stroke-linecap="round" stroke-linejoin="round" stroke-width="10"/><path d="m19.1673 33.3334c1.841 0 3.3334-1.4924 3.3334-3.3333 0-1.841-1.4924-3.3334-3.3334-3.3334-1.8409 0-3.3333 1.4924-3.3333 3.3334 0 1.8409 1.4924 3.3333 3.3333 3.3333z" fill="#111"/><path d="m39.1673 33.3334c1.841 0 3.3334-1.4924 3.3334-3.3333 0-1.841-1.4924-3.3334-3.3334-3.3334-1.8409 0-3.3333 1.4924-3.3333 3.3334 0 1.8409 1.4924 3.3333 3.3333 3.3333z" fill="#111"/><g stroke="#111" stroke-linecap="round" stroke-linejoin="round" stroke-width="10"><path d="m48.334 4.16675v16.66665"/><path d="m56.6667 12.5h-16.6667"/><path d="m34.3567 6.40683c-1.6734-.36667-3.4067-.57333-5.19-.57333-13.3467 0-24.1667 10.82-24.1667 24.1667 0 13.3466 10.82 24.1666 24.1667 24.1666 13.3466 0 24.1666-10.82 24.1666-24.1666 0-.8234-.0433-1.6367-.1233-2.44"/></g></svg>

<svg width="60" height="60" viewBox="0 0 60 60" fill="none" xmlns="http://www.w3.org/2000/svg">
<path d="M36.666 39.1934C35.0927 41.68 32.3193 43.3334 29.166 43.3334C26.0127 43.3334 23.2393 41.68 21.666 39.1934" stroke="#111111" stroke-width="10" stroke-linecap="round" stroke-linejoin="round"/>
<path d="M19.1673 33.3334C21.0083 33.3334 22.5007 31.841 22.5007 30.0001C22.5007 28.1591 21.0083 26.6667 19.1673 26.6667C17.3264 26.6667 15.834 28.1591 15.834 30.0001C15.834 31.841 17.3264 33.3334 19.1673 33.3334Z" fill="#111111"/>
<path d="M39.1673 33.3334C41.0083 33.3334 42.5007 31.841 42.5007 30.0001C42.5007 28.1591 41.0083 26.6667 39.1673 26.6667C37.3264 26.6667 35.834 28.1591 35.834 30.0001C35.834 31.841 37.3264 33.3334 39.1673 33.3334Z" fill="#111111"/>
<path d="M48.334 4.16675V20.8334" stroke="#111111" stroke-width="10" stroke-linecap="round" stroke-linejoin="round"/>
<path d="M56.6667 12.5H40" stroke="#111111" stroke-width="10" stroke-linecap="round" stroke-linejoin="round"/>
<path d="M34.3567 6.40683C32.6833 6.04016 30.95 5.8335 29.1667 5.8335C15.82 5.8335 5 16.6535 5 30.0002C5 43.3468 15.82 54.1668 29.1667 54.1668C42.5133 54.1668 53.3333 43.3468 53.3333 30.0002C53.3333 29.1768 53.29 28.3635 53.21 27.5602" stroke="#111111" stroke-width="10" stroke-linecap="round" stroke-linejoin="round"/>
</svg>
